X:1
T:Title
%%score 1 2 3
L:1/8
M:2/2
K:C
V:1 treble nm="Part_1"
V:2 treble-8 nm="Part_2"
V:3 treble-8 nm="Part_3"
V:1
 _B8- | B8 | A8 | G8 | G4 G4 | F4 A4- | A4 G4- | G4 ^F4 | G8 | z8 | G8 | G4 G4 | E8 | G8 | A4 G4- | %15
 G4 F4- | F4 E4 | F8 | z8 | D8 | C4 D4- | D4 E4 | F4 A4- | A4 G4- | G4 E4 | D4 E4- | E4 F4- | %27
 F4 D4- | D4 C4 | D8 |] %30
V:2
 _B8 | d8 | c8 | e8 | d8 | D8 | F4 G4 | D8 | d8- | d8 | z8 | G4 G4 | c8 | C8 | c8 | c4 c4- | %16
 c4 B4 | c8 | A8 | G8 | A4 G4 | _B8 | A8 | d4 c4- | c4 G4 | C8 | c8 | d4 A4- | A4 G4 | A8 |] %30
V:3
 _B8- | B8 | F8 | c8 | _B4 A4 | d8 | c4 _B4 | A8 | G8- | G8 | E8 | E4 E4 | C8 | E8 | F4 E4 | %15
 F4 A4 | G8 | F8- | F8 | _B8 | A4 _B4 | G8 | F8 | D4 E4 | C8 | G8 | A8 | D4 F4 | E8 | D8 |] %30

